svg/set/BOT/U.svg

<?xml version="1.0" encoding="utf-8"?>
<!-- Generator: Adobe Illustrator 15.1.0, SVG Export Plug-In . SVG Version: 6.00 Build 0)  -->
<!DOCTYPE svg PUBLIC "-//W3C//DTD SVG 1.1//EN" "http://www.w3.org/Graphics/SVG/1.1/DTD/svg11.dtd">
<svg version="1.1" id="Layer_1" xmlns="http://www.w3.org/2000/svg" xmlns:xlink="http://www.w3.org/1999/xlink" x="0px" y="0px"
	 width="135px" height="155px" viewBox="0 0 135 155" enable-background="new 0 0 135 155" xml:space="preserve">
<g id="Layer_1_1_">
</g>
<g id="Layer_3" display="none">
</g>
<g>
	<path d="M126.022,4.266L110.44,29.458l-20.041,7.151l5.565-31.883l-9.003,2.649l-9.517,17.175h-12.81
		c-12.438,0-24.889,1.962-37.026,5.833l-0.39-1.871H2.251l8.36,46.336l0.332,0.221l3.882,58.985l34.156,18.026h27.079l42.271-21.803
		l7.917-58.695l0.679-1.03l6.516-68.472L126.022,4.266z"/>
	<linearGradient id="SVGID_1_" gradientUnits="userSpaceOnUse" x1="22.0771" y1="19.1733" x2="122.005" y2="119.1012">
		<stop  offset="0" style="stop-color:#626E77"/>
		<stop  offset="0.0508" style="stop-color:#67747D"/>
		<stop  offset="0.1173" style="stop-color:#74838D"/>
		<stop  offset="0.1921" style="stop-color:#8B9DA8"/>
		<stop  offset="0.25" style="stop-color:#A0B6C2"/>
		<stop  offset="0.2534" style="stop-color:#A1B7C3"/>
		<stop  offset="0.3247" style="stop-color:#ADC6D4"/>
		<stop  offset="0.4027" style="stop-color:#B5CEDE"/>
		<stop  offset="0.5" style="stop-color:#B7D1E1"/>
		<stop  offset="0.5973" style="stop-color:#B5CEDE"/>
		<stop  offset="0.6753" style="stop-color:#ADC6D4"/>
		<stop  offset="0.7466" style="stop-color:#A1B7C3"/>
		<stop  offset="0.75" style="stop-color:#A0B6C2"/>
		<stop  offset="0.7657" style="stop-color:#99ADB9"/>
		<stop  offset="0.8254" style="stop-color:#81929C"/>
		<stop  offset="0.8849" style="stop-color:#707E88"/>
		<stop  offset="0.9435" style="stop-color:#65727B"/>
		<stop  offset="1" style="stop-color:#626E77"/>
	</linearGradient>
	<path fill="url(#SVGID_1_)" d="M65.281,66.652v50.546h-4.263V82.357l-5.241-20.056L65.281,66.652z M59.465,132.213l-4.277,16.117
		h10.094v-16.117H59.465z M56.665,122.74V93.689l-11.248,9.473v41.624l5.882,2.735l4.519-19.056h9.464v-5.726H56.665z
		 M127.857,10.375l-5.57,58.544l-51.55,78.358V84.578l7.617-7.533c2.398-2.517,5.518-5.64,8.185-6.366l25.017-8.849l0.312-4.786
		L84.962,67.086l1.238-6.747l26.066-9.409l0.33-5.058l-25.303,8.505l2.33-12.422l23.996-8.562L127.857,10.375z M108.932,73.635
		L73.351,86.82l7.844,16.255L108.932,73.635z M51.243,42.942c0,0,6.74-2.189,14.038-2.465V29.347
		c-12.607-0.07-25.092,1.899-37.456,5.986l2.047,11.02l35.409,16.454V50.814L51.243,42.942z M113.932,127.175l6.595-48.88
		l-46.142,69.261L113.932,127.175z M74.829,47.546L70.737,61.11v18.953l9.037-10.352l10.06-57.632L75.541,37.91h-4.804v9.636H74.829
		z M26.058,94.423l-1.202-10.531l-8.907-5.453l3.466,52.65l21.969,11.688v-38.336L26.058,94.423z M30.923,82.671L14.949,72.005
		L7.963,33.287h15.371l3.11,14.995l24.069,11.993l5.9,22.396H30.923z M20.112,55.863L45.67,66.555l-0.823-4.388L19.758,51.64
		L20.112,55.863z M21.295,65.2l26.216,11.188l-0.79-4.221L20.948,61.271L21.295,65.2z"/>
</g>
</svg>

<?xml version="1.0" encoding="UTF-8" standalone="no"?>
<!-- Generator: Adobe Illustrator 15.1.0, SVG Export Plug-In . SVG Version: 6.00 Build 0)  -->

<svg
   version="1.1"
   id="Layer_1"
   x="0px"
   y="0px"
   width="131.192"
   height="150"
   viewBox="0 0 131.192 150"
   enable-background="new 0 0 135 155"
   xml:space="preserve"
   xmlns="http://www.w3.org/2000/svg"
   xmlns:svg="http://www.w3.org/2000/svg"><defs
   id="defs18" />
<g
   id="Layer_1_1_"
   transform="translate(-2.251,-2.08)">
</g>
<g
   id="Layer_3"
   display="none"
   transform="translate(-2.251,-2.08)">
</g>
<g
   id="g18"
   transform="translate(-2.251,-2.08)">
	<path
   d="M 126.022,4.266 110.44,29.458 90.399,36.609 95.964,4.726 86.961,7.375 77.444,24.55 h -12.81 c -12.438,0 -24.889,1.962 -37.026,5.833 l -0.39,-1.871 H 2.251 l 8.36,46.336 0.332,0.221 3.882,58.985 34.156,18.026 H 76.06 l 42.271,-21.803 7.917,-58.695 0.679,-1.03 6.516,-68.472 z"
   id="path1" />
	<linearGradient
   id="SVGID_1_"
   gradientUnits="userSpaceOnUse"
   x1="22.077101"
   y1="19.1733"
   x2="122.005"
   y2="119.1012">
		<stop
   offset="0"
   style="stop-color:#626E77"
   id="stop1" />
		<stop
   offset="0.0508"
   style="stop-color:#67747D"
   id="stop2" />
		<stop
   offset="0.1173"
   style="stop-color:#74838D"
   id="stop3" />
		<stop
   offset="0.1921"
   style="stop-color:#8B9DA8"
   id="stop4" />
		<stop
   offset="0.25"
   style="stop-color:#A0B6C2"
   id="stop5" />
		<stop
   offset="0.2534"
   style="stop-color:#A1B7C3"
   id="stop6" />
		<stop
   offset="0.3247"
   style="stop-color:#ADC6D4"
   id="stop7" />
		<stop
   offset="0.4027"
   style="stop-color:#B5CEDE"
   id="stop8" />
		<stop
   offset="0.5"
   style="stop-color:#B7D1E1"
   id="stop9" />
		<stop
   offset="0.5973"
   style="stop-color:#B5CEDE"
   id="stop10" />
		<stop
   offset="0.6753"
   style="stop-color:#ADC6D4"
   id="stop11" />
		<stop
   offset="0.7466"
   style="stop-color:#A1B7C3"
   id="stop12" />
		<stop
   offset="0.75"
   style="stop-color:#A0B6C2"
   id="stop13" />
		<stop
   offset="0.7657"
   style="stop-color:#99ADB9"
   id="stop14" />
		<stop
   offset="0.8254"
   style="stop-color:#81929C"
   id="stop15" />
		<stop
   offset="0.8849"
   style="stop-color:#707E88"
   id="stop16" />
		<stop
   offset="0.9435"
   style="stop-color:#65727B"
   id="stop17" />
		<stop
   offset="1"
   style="stop-color:#626E77"
   id="stop18" />
	</linearGradient>
	<path
   fill="url(#SVGID_1_)"
   d="m 65.281,66.652 v 50.546 H 61.018 V 82.357 L 55.777,62.301 Z m -5.816,65.561 -4.277,16.117 h 10.094 v -16.117 z m -2.8,-9.473 V 93.689 l -11.248,9.473 v 41.624 l 5.882,2.735 4.519,-19.056 h 9.464 v -5.726 h -8.617 z m 71.192,-112.365 -5.57,58.544 -51.55,78.358 V 84.578 l 7.617,-7.533 c 2.398,-2.517 5.518,-5.64 8.185,-6.366 l 25.017,-8.849 0.312,-4.786 -26.906,10.042 1.238,-6.747 26.066,-9.409 0.33,-5.058 -25.303,8.505 2.33,-12.422 23.996,-8.562 z m -18.925,63.26 -35.581,13.185 7.844,16.255 z M 51.243,42.942 c 0,0 6.74,-2.189 14.038,-2.465 v -11.13 c -12.607,-0.07 -25.092,1.899 -37.456,5.986 l 2.047,11.02 35.409,16.454 V 50.814 Z m 62.689,84.233 6.595,-48.88 -46.142,69.261 z M 74.829,47.546 70.737,61.11 V 80.063 L 79.774,69.711 89.834,12.079 75.541,37.91 h -4.804 v 9.636 z m -48.771,46.877 -1.202,-10.531 -8.907,-5.453 3.466,52.65 21.969,11.688 V 104.441 Z M 30.923,82.671 14.949,72.005 7.963,33.287 h 15.371 l 3.11,14.995 24.069,11.993 5.9,22.396 H 30.923 Z M 20.112,55.863 45.67,66.555 44.847,62.167 19.758,51.64 Z M 21.295,65.2 47.511,76.388 46.721,72.167 20.948,61.271 Z"
   id="path18"
   style="fill:url(#SVGID_1_)" />
</g>
</svg>
